X: 493
T: reel du P\`ere Bruneau
C: Lorenzo Picard
R: reel
Z: 2012 John Chambers <jc:trillian.mit.edu>
B: The Portland Collection v.2 p.155
M: C|
L: 1/8
K: D
ABc |\
"D"dAFD "G"GBAG | "A7"FA (3EFE "D"DABc | dfed "A7"cBAG | FAEG "D"FABc |
"D"dAFD "G"GBAG | "A7"FA (3EFE "D"DABc | dfed "A7"cBAG |1 FABc "D"d :|2 FABc "D"d2B2 ||
|:\
"D"(3ABA FA ddAd | ffdf a3B | (3ABA FA dFAd | "Em"c4 B2GF |
"A7"E3F GBA2 | c3c- c2(3BcB | A2cB AGFE |1 "D"Dd- dA "A7"BAFG :|2 "D"D3D- D |]

%%sep 1 1 500

